app/dist/common/images/matterport.svg

<svg height="18" viewBox="0 0 18 18" width="18" xmlns="http://www.w3.org/2000/svg"><path d="m0 0h18v18h-18z" fill="#f0f3fa"/><path d="m12.57 4-3.57 1-3.57-1-1.43.4v9.2l1.43.4 3.57-1 3.57 1 1.43-.4v-9.2zm-1.57 6.86-2-.6-2 .6v-3.72l2 .6 2-.6z" fill="#6d6d6d"/><path d="m9 5.8v1.93l-3.5-1v7.27l-1.5-.4v-9.2zm2 5.86-2-.6v1.94l3.5 1v-7.26l-1.5.4z" fill="#0e0708"/><path d="m12.57 4 1.43.4-5 1.4-5-1.4 1.43-.4 3.57 1zm-3.57 6.26 2 .6v.8l-2-.6-2 .6v-.8z" fill="#999"/></svg>

<!-- by TradingView --><svg xmlns="http://www.w3.org/2000/svg" width="18" height="18" viewBox="0 0 18 18"><path fill="#F0F3FA" d="M0 0h18v18H0z"/><path d="M12.57 4L9 5 5.43 4 4 4.4v9.2l1.43.4L9 13l3.57 1 1.43-.4V4.4L12.57 4zM11 10.86l-2-.6-2 .6V7.14l2 .6 2-.6v3.72z" fill="#6D6D6D"/><path d="M9 5.8v1.93l-3.5-1V14L4 13.6V4.4l5 1.4zM11 11.66l-2-.6V13l3.5 1V6.74l-1.5.4v4.52z" fill="#0E0708"/><path d="M12.57 4l1.43.4-5 1.4-5-1.4L5.43 4 9 5l3.57-1zM9 10.26l2 .6v.8l-2-.6-2 .6v-.8l2-.6z" fill="#999"/></svg>
